X:31
T:The Soldier Laddie
S:Petrie's Third Collection of Strathspey Reels and Country Dances &c.
Z:Steve Wyrick , 7/30/05
N:Petrie's Third Collection, page 13
L:1/8
M:6/8
R:Jig
K:G
g|BAG GDE|ABA ABc|BAG GDE|GAG B2G|cdc BcB|
ABA ABd|(e/f/g)G- GDE GAG G2::e/f/|gag gdB|Aaa Ta2g|def gdB|
g(a/g/f/e/) gdB cac BgB|ABA ABd|(e/f/g)G- GDE|GAG G2:|
